Hatter-kde/actions/24/system-log-out-rtl.svg

<?xml version="1.0" encoding="UTF-8"?>
<svg width="24" height="24" viewBox="0 0 24 24" xmlns="http://www.w3.org/2000/svg">
 <defs id="defs3051">
  <style id="current-color-scheme" type="text/css">.ColorScheme-Text {
        color:#363636;
      }</style>
 </defs>
 <g transform="translate(1,1)">
  <path class="ColorScheme-Text" d="m11 3c-4.4 0-8 3.6-8 8s3.6 8 8 8 8-3.6 8-8-3.6-8-8-8zm0 1c3.9 0 7 3.1 7 7s-3.1 7-7 7-7-3.1-7-7 3.1-7 7-7zm-1.3 3-0.7 0.7 3.3 3.3-3.3 3.3 0.7 0.7 4-4-4-4z" fill="currentColor"/>
 </g>
</svg>

<svg xmlns="http://www.w3.org/2000/svg" viewBox="0 0 24 24" width="24" height="24">
  <defs id="defs3051">
    <style type="text/css" id="current-color-scheme">
      .ColorScheme-Text {
        color:#363636;
      }
      </style>
  </defs>
  <g transform="translate(1,1)">
    <path style="fill:currentColor;fill-opacity:1;stroke:none" d="M 11 3 C 6.6 3 3 6.6 3 11 C 3 15.4 6.6 19 11 19 C 15.4 19 19 15.4 19 11 C 19 6.6 15.4 3 11 3 z M 11 4 C 14.9 4 18 7.1 18 11 C 18 14.9 14.9 18 11 18 C 7.1 18 4 14.9 4 11 C 4 7.1 7.1 4 11 4 z M 9.7 7 L 9 7.7 L 12.3 11 L 9 14.3 L 9.7 15 L 13.7 11 L 9.7 7 z " class="ColorScheme-Text"/>
  </g>
</svg>
